icons/Logos/wechat-2-line.svg

<svg viewBox="0 0 24 24" xmlns="http://www.w3.org/2000/svg"><path d="M8.66725 11.5116C7.94997 11.5116 7.38211 10.9434 7.38211 10.2258C7.38211 9.50809 7.94997 8.93992 8.66725 8.93992C9.38454 8.93992 9.95239 9.50809 9.95239 10.2258C9.95239 10.9434 9.38454 11.5116 8.66725 11.5116ZM15.3339 11.5116C14.6166 11.5116 14.0488 10.9434 14.0488 10.2258C14.0488 9.50809 14.6166 8.93992 15.3339 8.93992C16.0512 8.93992 16.6191 9.50809 16.6191 10.2258C16.6191 10.9434 16.0512 11.5116 15.3339 11.5116ZM6.82289 19.2156L7.53841 18.7792C8.34812 18.2853 9.30697 18.0952 10.2438 18.2428C10.4553 18.2762 10.6292 18.3018 10.7634 18.3195C11.1696 18.3731 11.5828 18.4002 12.0006 18.4002C16.4213 18.4002 19.9006 15.3778 19.9006 11.8002C19.9006 8.2226 16.4213 5.2002 12.0006 5.2002C7.57986 5.2002 4.10059 8.2226 4.10059 11.8002C4.10059 13.1658 4.60024 14.4731 5.53227 15.5812C5.58056 15.6386 5.65277 15.718 5.74666 15.8157C6.54199 16.644 6.94301 17.7741 6.84765 18.9184L6.82289 19.2156ZM6.19286 21.9425C6.00989 22.0569 5.79484 22.109 5.57981 22.0911C5.02944 22.0452 4.62045 21.5619 4.66631 21.0115L4.85456 18.7523C4.90224 18.1802 4.70173 17.6151 4.30407 17.201C4.1819 17.0738 4.08111 16.963 4.0017 16.8685C2.80622 15.4472 2.10059 13.6953 2.10059 11.8002C2.10059 7.05055 6.53297 3.2002 12.0006 3.2002C17.4682 3.2002 21.9006 7.05055 21.9006 11.8002C21.9006 16.5498 17.4682 20.4002 12.0006 20.4002C11.4911 20.4002 10.9906 20.3668 10.5018 20.3023C10.3491 20.2821 10.1593 20.2542 9.93256 20.2185C9.46412 20.1447 8.9847 20.2397 8.57985 20.4866L6.19286 21.9425Z"/></svg>

<svg xmlns="http://www.w3.org/2000/svg" viewBox="0 0 24 24">
    <g>
        <path fill="none" d="M0 0h24v24H0z"/>
        <path d="M8.667 11.511a1.276 1.276 0 0 1-1.285-1.285c0-.718.567-1.286 1.285-1.286.717 0 1.285.568 1.285 1.286 0 .717-.568 1.285-1.285 1.285zm6.666 0a1.276 1.276 0 0 1-1.285-1.285c0-.718.568-1.286 1.285-1.286.718 0 1.285.568 1.285 1.286 0 .717-.567 1.285-1.285 1.285zm-8.51 7.704l.715-.436a4 4 0 0 1 2.705-.536c.212.033.386.059.52.076.406.054.82.081 1.237.081 4.42 0 7.9-3.022 7.9-6.6S16.42 5.2 12 5.2s-7.9 3.022-7.9 6.6c0 1.366.5 2.673 1.432 3.781.048.057.12.137.214.235a4 4 0 0 1 1.101 3.102l-.025.297zm-.63 2.727a1 1 0 0 1-1.527-.93l.188-2.26a2 2 0 0 0-.55-1.551A6.993 6.993 0 0 1 4 16.868C2.806 15.447 2.1 13.695 2.1 11.8c0-4.75 4.432-8.6 9.9-8.6s9.9 3.85 9.9 8.6-4.432 8.6-9.9 8.6c-.51 0-1.01-.033-1.499-.098a23.61 23.61 0 0 1-.569-.084 2 2 0 0 0-1.353.268l-2.387 1.456z"/>
    </g>
</svg>
